svg/Outline/volume-high.svg

<svg viewBox="0 0 24 24" xmlns="http://www.w3.org/2000/svg" width="24" height="24"><path d="M18.98 2.38a.9.9 0 0 1 1.2.03l.07.06.16.19c.76.95 1.4 2.27 1.85 3.84.49 1.67.74 3.57.74 5.5s-.25 3.83-.74 5.5a11 11 0 0 1-2.01 4.03l-.06.06a.9.9 0 0 1-1.3-1.24l.23-.29A10 10 0 0 0 20.53 17c.44-1.5.67-3.22.67-5s-.23-3.5-.67-5a10 10 0 0 0-1.41-3.06l-.23-.29-.06-.07a.9.9 0 0 1 .15-1.2"/><path d="M17.78 5.33a7.5 7.5 0 0 1 1.4 2.82c.34 1.17.52 2.5.52 3.85s-.18 2.68-.52 3.85a7.5 7.5 0 0 1-1.4 2.82.9.9 0 0 1-1.37-1.18c.37-.42.75-1.13 1.05-2.14.28-1 .44-2.15.44-3.35s-.16-2.36-.44-3.35c-.3-1-.68-1.72-1.05-2.14z"/><path fill-rule="evenodd" d="M9.76 5.7c.48.08.91.34 1.2.73.27.34.34.75.37 1.07q.04.5.03 1.22v6.56q0 .72-.03 1.22c-.03.32-.1.73-.36 1.07a2 2 0 0 1-1.42.75c-.43.02-.8-.16-1.08-.31q-.45-.26-1.03-.67l-1.92-1.32a8 8 0 0 0-.9-.58 3 3 0 0 0-.9-.28 8 8 0 0 0-1.07-.03l-.33-.01q-.19 0-.45-.1a1.4 1.4 0 0 1-.86-1.21L1 13.48v-3.29q0-.17.1-.44l.06-.13q.24-.45.71-.64L2 8.94q.18-.05.32-.06h.33c.63 0 .86 0 1.07-.04q.46-.07.9-.28c.2-.1.38-.22.9-.58l1.92-1.32q.6-.41 1.03-.67a2 2 0 0 1 1.08-.3zm-.41 1.86q-.28.17-.89.59L6.54 9.47c-.48.32-.8.54-1.13.71a5 5 0 0 1-2.6.5v2.65c.49 0 .83 0 1.18.05q.74.1 1.42.44c.34.17.65.39 1.13.71l1.92 1.32a14 14 0 0 0 1.03.66l.02-.01.02-.16c.03-.23.03-.55.03-1.06V8.72q0-.73-.03-1.06l-.02-.16h-.02z" clip-rule="evenodd"/><path d="M14.04 8.1a.9.9 0 0 1 1.2.02l.07.06.12.15q.42.58.68 1.46a8 8 0 0 1 0 4.41 4 4 0 0 1-.8 1.62.9.9 0 0 1-1.36-1.18c.11-.13.29-.43.43-.94a6.3 6.3 0 0 0-.34-4.2l-.1-.14-.05-.07a.9.9 0 0 1 .15-1.2m2.46-2.85a.9.9 0 0 1 1.28.1L16.4 6.5a.9.9 0 0 1 .1-1.27"/></svg>

<svg viewBox="0 0 24 24" xmlns="http://www.w3.org/2000/svg" width="24" height="24"><path d="M18.98 2.38A.9 .9 0 0 1 20.18 2.41L20.41 2.66C21.17 3.61 21.81 4.93 22.26 6.5C22.75 8.17 23 10.07 23 12C23 13.93 22.75 15.83 22.26 17.5A11 11 0 0 1 20.25 21.53L20.19 21.59A.9 .9 0 0 1 18.89 20.35L19.12 20.06A10 10 0 0 0 20.53 17C20.97 15.5 21.2 13.78 21.2 12C21.2 10.22 20.97 8.5 20.53 7A10 10 0 0 0 19.12 3.94L18.83 3.58A.9 .9 0 0 1 18.98 2.38"/><path d="M17.78 5.33a7.5 7.5 0 0 1 1.4 2.82c.34 1.17.52 2.5.52 3.85s-.18 2.68-.52 3.85a7.5 7.5 0 0 1-1.4 2.82.9.9 0 0 1-1.37-1.18c.37-.42.75-1.13 1.05-2.14.28-1 .44-2.15.44-3.35s-.16-2.36-.44-3.35c-.3-1-.68-1.72-1.05-2.14z"/><path fill-rule="evenodd" d="M9.76 5.7C10.24 5.78 10.67 6.04 10.96 6.43C11.23 6.77 11.3 7.18 11.33 7.5Q11.37 8 11.36 8.72L11.36 15.28Q11.36 16 11.33 16.5C11.3 16.82 11.23 17.23 10.97 17.57A2 2 0 0 1 9.55 18.32C9.12 18.34 8.75 18.16 8.47 18.01Q8.02 17.75 7.44 17.34L5.52 16.02A8 8 0 0 0 4.62 15.44A3 3 0 0 0 3.72 15.16A8 8 0 0 0 2.65 15.13L2.32 15.12Q2.13 15.12 1.87 15.02A1.4 1.4 0 0 1 1.01 13.81L1 10.19Q1 10.02 1.1 9.75L1.16 9.62Q1.4 9.17 1.87 8.98L2 8.94Q2.18 8.89 2.32 8.88L2.65 8.88C3.28 8.88 3.51 8.88 3.72 8.84Q4.18 8.77 4.62 8.56C4.82 8.46 5 8.34 5.52 7.98L7.44 6.66Q8.04 6.25 8.47 5.99A2 2 0 0 1 9.55 5.69ZM9.35 7.56Q9.07 7.73 8.46 8.15L6.54 9.47C6.06 9.79 5.74 10.01 5.41 10.18A5 5 0 0 1 2.81 10.68L2.81 13.33C3.3 13.33 3.64 13.33 3.99 13.38Q4.73 13.48 5.41 13.82C5.75 13.99 6.06 14.21 6.54 14.53L8.46 15.85A14 14 0 0 0 9.49 16.51L9.53 16.34C9.56 16.11 9.56 15.79 9.56 15.28L9.56 8.72Q9.56 7.99 9.53 7.66L9.49 7.5Z" clip-rule="evenodd"/><path d="M14.04 8.1A.9 .9 0 0 1 15.24 8.12L15.43 8.33Q15.85 8.91 16.11 9.79A8 8 0 0 1 16.11 14.2A4 4 0 0 1 15.31 15.82A.9 .9 0 0 1 13.95 14.64C14.06 14.51 14.24 14.21 14.38 13.7A6.3 6.3 0 0 0 14.04 9.5L13.89 9.29A.9 .9 0 0 1 14.04 8.09M16.5 5.24a.9.9 0 0 1 1.28.1L16.4 6.5a.9.9 0 0 1 .1-1.27"/></svg>
